modules/micon/icons/RightDoubleQuote.svg

<svg xmlns="http://www.w3.org/2000/svg" viewBox="0 0 438 1024"><path d="M0 33h166v171.5q0 25.5-3.5 52.5t-11.5 52.25-20.75 47.75-30.75 39.25-42.25 26.5-54.75 9.75v-78.5q18.5 0 32.25-7.25t23.25-19 15.25-27.25 9-32 4.5-33.25 1.25-30.75h-88v-171.5zm437.5 0v171.5q0 39-8 79.5t-27 73.5-50.25 54-78.25 21v-78.5q27.5 0 44.75-15.25t26.5-38 12.5-48.75 3.25-47.5h-88v-171.5h164.5z"/></svg>

<svg xmlns="http://www.w3.org/2000/svg" viewBox="0 0 438 1024"><path d="M0 33h166v171.5q0 25.5-3.5 52.5T151 309.25 130.25 357 99.5 396.25t-42.25 26.5T2.5 432.5V354q18.5 0 32.25-7.25t23.25-19 15.25-27.25 9-32 4.5-33.25T88 204.5H0V33zm437.5 0v171.5q0 39-8 79.5t-27 73.5-50.25 54-78.25 21V354q27.5 0 44.75-15.25t26.5-38 12.5-48.75 3.25-47.5h-88V33h164.5z"/></svg>
